src/assets/icons/json.svg

<svg width="34" height="24" viewBox="0 0 34 24" fill="none" xmlns="http://www.w3.org/2000/svg">
<rect x="0.5" y="0.5" width="33" height="23" rx="2.5" fill="#E5F3FF" stroke="#B8E1FF"/>
<path fill-rule="evenodd" clip-rule="evenodd" d="M9.09251 11.9067V12.0639C9.92767 12.1572 10.3796 12.5797 10.3796 13.2871V14.5005C10.3796 15.1932 10.6154 15.4585 11.2344 15.4585H11.4506V16.5H11.0871C9.62799 16.5 9.009 15.94 9.009 14.643V13.6703C9.009 12.9481 8.69459 12.6779 7.84961 12.6681V11.3024C8.68967 11.2975 9.009 11.0273 9.009 10.3002V9.33242C9.009 8.05022 9.62799 7.5 11.0871 7.5H11.4506V8.54148H11.2344C10.6105 8.54148 10.3796 8.80677 10.3796 9.49945V10.6834C10.3796 11.3957 9.92767 11.8182 9.09251 11.9067ZM24.8966 12.0884V11.9312C24.0614 11.8428 23.6094 11.4203 23.6094 10.708V9.49454C23.6094 8.80186 23.3736 8.54148 22.7546 8.54148H22.5385V7.5H22.902C24.3562 7.5 24.9752 8.06004 24.9752 9.35207V10.3248C24.9752 11.0469 25.2945 11.3221 26.1395 11.327V12.6927C25.2945 12.6976 24.9752 12.9727 24.9752 13.6949V14.6676C24.9752 15.9498 24.3611 16.5 22.902 16.5H22.5385V15.4536H22.7546C23.3736 15.4536 23.6094 15.1932 23.6094 14.5005V13.3117C23.6094 12.6043 24.0614 12.1818 24.8966 12.0884ZM14 13C14.5523 13 15 12.5523 15 12C15 11.4477 14.5523 11 14 11C13.4477 11 13 11.4477 13 12C13 12.5523 13.4477 13 14 13ZM18 12C18 12.5523 17.5523 13 17 13C16.4477 13 16 12.5523 16 12C16 11.4477 16.4477 11 17 11C17.5523 11 18 11.4477 18 12ZM20 13C20.5523 13 21 12.5523 21 12C21 11.4477 20.5523 11 20 11C19.4477 11 19 11.4477 19 12C19 12.5523 19.4477 13 20 13Z" fill="#2684B8"/>
</svg>

<svg width="34" height="24" fill="none" xmlns="http://www.w3.org/2000/svg"><rect x=".5" y=".5" width="33" height="23" rx="2.5" fill="#E5F3FF" stroke="#B8E1FF"/><path fill-rule="evenodd" clip-rule="evenodd" d="M9.093 11.907v.157c.835.093 1.287.516 1.287 1.223V14.5c0 .693.235.959.854.959h.217V16.5h-.364c-1.459 0-2.078-.56-2.078-1.857v-.973c0-.722-.314-.992-1.16-1.002v-1.366c.84-.005 1.16-.275 1.16-1.002v-.968c0-1.282.619-1.832 2.078-1.832h.364v1.041h-.217c-.623 0-.854.266-.854.958v1.184c0 .713-.452 1.135-1.287 1.224zm15.804.181v-.157c-.836-.088-1.288-.51-1.288-1.223V9.495c0-.693-.235-.954-.854-.954h-.216V7.5h.363c1.454 0 2.073.56 2.073 1.852v.973c0 .722.32.997 1.165 1.002v1.366c-.846.005-1.165.28-1.165 1.002v.973c0 1.282-.614 1.832-2.073 1.832h-.364v-1.046h.217c.619 0 .854-.26.854-.954v-1.188c0-.708.452-1.13 1.288-1.224zM14 13a1 1 0 100-2 1 1 0 000 2zm4-1a1 1 0 11-2 0 1 1 0 012 0zm2 1a1 1 0 100-2 1 1 0 000 2z" fill="#2684B8"/></svg>
